X:1
T:Title
%%score { 1 | 2 }
L:1/8
M:4/4
K:F
V:1 treble nm="Grand Piano"
V:2 bass 
V:1
 z4 z2[Q:1/4=100] C>F | A2 A2 A2 A2 | A2 A4 F>A | [Ac]2 [Gc]2 [Fc]2 [Gc]2 | [Ac]6 [Bd]>[Ac] | %5
 B2 B2 B2 c>B | A2 A2 A2 A>A | G2 c2 [^FA]2 [=F=B]2 | [Ec]6 c>c | c2 [Bc]2 [Gc]2 [Ec]2 | %10
 [Fc]2 [Ac]4 [Ac]>[Ac] | [^Fd]2 [cd]2 [Bd]2 [Ad]2 | [Bd]6 [Bd]>[Bd] | e2 c2 [Af]2 [Ac]>[Ac] | %14
 [^Fd]2 [FA]2 B2 D>=F | [FA]2 A2 [DA]2 [EG]2 |[M:3/4] F6 |[M:1/4] c>A |[M:4/4] d2 c2 z2 c>A | %19
[M:3/4] d2 c2 z2 |[M:1/4] [EA]>[EG] |[M:4/4] [CF]2 [CF]2 [EG]2 [EG]2 | A6 c>A | d2 c2 z2 c>d | %24
 e2 G2 z2 c>c | [=Bf]2 [Bf]2 [Ge]2 [Fd]2 | [Ec]6 c>c | c2 B2 G2 E2 | F2 A4 c>c | d2 c2 B2 A2 | %30
 B6 [Bd]>[Bd] | e2 e2 z2 c>c | [Af]2 [Af]2 z2 c>B | A2 A2 [EA]2 [EG]2 |[M:3/4] [CF]6 |] %35
V:2
 z4 z2 [F,A,]>[F,A,C] | [F,CF]2 [F,CF]2 [F,CE]2 [F,CD]2 | [F,C]2 [F,C]4 [F,A,C]>[F,CF] | %3
 [F,C]2 [F,B,]2 [F,A,]2 [F,B,]2 | [F,C]6 [F,C]>[F,C] | [CEG]2 [CEG]2 [CEG]2 [CEA]>[CEG] | %6
 [F,CF]2 [F,CF]2 [F,CF]2 [^F,C_E]>[F,CE] | [G,CE]2 [G,CE]2 [D,D]2 [G,D]2 | [C,C]6 [C,C]>[C,C] | %9
 [C,C]2 [C,C]2 [C,B,]2 [C,G,]2 | [F,A,]2 [F,C]4 [F,A,]>[F,A,] | [D,A,]2 [D,D]2 [D,D]2 [D,C]2 | %12
 [G,B,]6[K:treble] [G,D]>[G,D] | [CB]2 [CEB]2[K:bass] [F,C]2 [F,C]>[F,A,] | %14
 [D,A,]2 [D,D]2[K:treble] [G,DG]2 [G,B,]>[K:bass][G,B,D] | [C,C]2 [C,C]2 [C,=B,]2 [C,_B,]2 | %16
[M:3/4] [F,A,]6 |[M:1/4][K:treble] [CFA]>[A,CF] |[M:4/4] [DFA]2 [CFA]2 z2 [CFA]>[A,CF] | %19
[M:3/4] [DEGB]2 [CEGB]2 z2 |[M:1/4][K:bass] [C,C]>[C,B,] |[M:4/4] [F,A,]2 [F,A,]2 [C,C]2 [C,C]2 | %22
 [F,CF]6 [CFA]>[A,CF] | [DFA]2 [CFA]2 z2 [CEG]>[DFG=B] | [EGc]2 [G,CE]2 z2 [CEG]>[CEG] | %25
 [G,D]2 [G,D]2 [G,C]2[K:bass] [G,B,]2 | [C,C]2 C>C C2[K:treble] [CEG]>[CEG] | %27
 [CEG]2 [B,EG]2 [G,CE]2[K:bass] [E,B,C]2 | [F,A,C]2[K:treble] [A,CF]4 [CFA]>[CFA] | %29
 [D^FA]2 [CFA]2 [B,DG]2 [A,DF]2 | [B,DG]6 [G,D]>[G,D] | [CB]2 [CB]2 z2 [CEB]>[CEB] | %32
 [F,C]2 [F,C]2 z2[K:treble] [B,DG]>[B,DG] | [CF]2 [CF]2[K:bass] [C,C]2 [C,B,]2 |[M:3/4] [F,A,]6 |] %35

